X: 10262
T: WASHINGTON'S GRAND MARCH
C:
%R: march
B: Elias Howe "The Musician's Companion" Part 1 1842 p.26 #2
S: http://imslp.org/wiki/The_Musician's_Companion_(Howe,_Elias)
Z: 2015 John Chambers <jc:trillian.mit.edu>
M: C
L: 1/8
K: G
% - - - - - - - - - - - - - - - - - - - - - - - - -
D2 |\
G2G>G GBdB | A>GAB A2G>A |\
B>ABc Bcdc | B2G>G G2 |[| gf |\
e2c>c c2a/g/f/e/ | d2B>B B2ed |\
c2A>A A2 f/e/d/c/ | B2B>B G2dc |
(3(Bcd) (3(efg) B2A2 | G2G>G G2 |[| ga |\
(3(gab) G>G G2 ga | (3(gab) G>G G2 gf |\
efga g2f2 | e>ee2 efge |\
dcde dgbg | cBcd cfac |\
BABc B2A2 | G2G>G G2 |]
% - - - - - - - - - - - - - - - - - - - - - - - - -
